X:15
T:Give us a Drink of Water
T:Swaggering Jig, The
R:slip jig
H:See also #17, #59
D:Bothy Band 1975.
Z:id:hn-slipjig-15
M:9/8
K:G
BGG AGE DEG|BGG GFG A2c|BGG AGE DEG|cBA BGE D2c:|
Bdd dge dBG|Bdd dBG A2c|Bdd dge dBG|cBA BGE D2c|
Bdd dge dBG|Bdd dBG Aef|gfe dBd cBA|cBA BGE D3||
<end>
<start>
